X:103
T:Untitled. Le4.103
M:6/8
L:1/8
N:Number 58 in MS
Q:1/4=100
B:L.Leadley MS#4 c1850
Z:Village Music Project, 2016 Ruairidh Greig
K:G
d2e (dBG)|A2B (AFD)|d2e (dBG)|(ABA)G2z|
d2e (dBG)|A2B (AFD)|d2e (dBG)|(ABA)G2z||
(GFG) AGF|(DGA) B2B|(BcB)A2e|d2cB2z|
G2A (GBd)|c2d (cGE)|(DED) dz D|d2Dd2D|
d2e (dBG)|A2B (AFD)|d2e (dg)B|(ABA)G2z|
d2{f}e (dB)G|A2B (AFD)|d2e (dBG)|DBAG2z|]

